src/assets/flags/MDL.svg

<svg width="512" height="512" viewBox="0 0 512 512" fill="none" xmlns="http://www.w3.org/2000/svg"><mask id="a" style="mask-type:alpha" maskUnits="userSpaceOnUse" x="0" y="0" width="512" height="512" viewBox="0 0 512 512"><path d="M512 256C512 114.615 397.385 0 256 0S0 114.615 0 256s114.615 256 256 256 256-114.615 256-256z" fill="#fff"/></mask><g mask="url(#a)"><path d="M144.041 512 120 258.2 144.041 0h221.725L406 254.9 365.766 512H144.041z" fill="#FFDA44"/><path d="M0 512V0h145v512H0z" fill="#0052B4"/><path d="M368 512V0h144v512H368z" fill="#D80027"/><path d="M344.9 201.8h-61.1a27.804 27.804 0 0 0-8.142-19.658 27.804 27.804 0 0 0-39.316 0A27.804 27.804 0 0 0 228.2 201.8H167a28.198 28.198 0 0 0 28.3 27.4h-1a27.405 27.405 0 0 0 8.061 19.41 27.392 27.392 0 0 0 19.439 7.99c0 13.4 9.6 24.5 22.3 27l-21.6 48.7a88.809 88.809 0 0 0 33.5 6.5 88.809 88.809 0 0 0 33.5-6.5l-21.6-48.9a27.401 27.401 0 0 0 22.3-26.9 27.403 27.403 0 0 0 27.4-27.4h-.9a28.198 28.198 0 0 0 28.3-27.4l-.1.1z" fill="#FF9811"/><path d="m255.9 239.699-36.1 16.7v33.4l36.2 22.3 36.2-22.3v-33.4l-36.3-16.7z" fill="#0052B4"/><path d="M219.8 223h72.3v33.4h-72.3V223z" fill="#D80027"/></g></svg>

<svg width="512" height="512" viewBox="0 0 512 512" fill="none" xmlns="http://www.w3.org/2000/svg">
<mask id="mask0_517_234" style="mask-type:alpha" maskUnits="userSpaceOnUse" x="0" y="0" width="512" height="512">
<path d="M512 256C512 114.615 397.385 0 256 0C114.615 0 0 114.615 0 256C0 397.385 114.615 512 256 512C397.385 512 512 397.385 512 256Z" fill="white"/>
</mask>
<g mask="url(#mask0_517_234)">
<path d="M144.041 512L120 258.2L144.041 0H365.766L406 254.9L365.766 512H144.041Z" fill="#FFDA44"/>
<path d="M0 512L0 0H145L145 512H0Z" fill="#0052B4"/>
<path d="M368 512L368 0H512V512H368Z" fill="#D80027"/>
<path d="M344.9 201.8H283.8C283.8 194.427 280.871 187.356 275.658 182.142C270.444 176.929 263.373 174 256 174C248.627 174 241.556 176.929 236.342 182.142C231.129 187.356 228.2 194.427 228.2 201.8H167C167.209 209.157 170.285 216.141 175.573 221.26C180.861 226.38 187.94 229.229 195.3 229.2H194.3C194.3 232.807 195.012 236.378 196.395 239.709C197.778 243.04 199.806 246.065 202.361 248.61C204.916 251.156 207.948 253.172 211.284 254.543C214.62 255.914 218.193 256.613 221.8 256.6C221.8 270 231.4 281.1 244.1 283.6L222.5 332.3C233.141 336.612 244.518 338.819 256 338.8C267.482 338.819 278.859 336.612 289.5 332.3L267.9 283.4C274.167 282.213 279.823 278.876 283.894 273.966C287.965 269.055 290.195 262.878 290.2 256.5C297.467 256.5 304.436 253.613 309.575 248.475C314.713 243.336 317.6 236.367 317.6 229.1H316.7C324.06 229.129 331.139 226.28 336.427 221.16C341.715 216.041 344.791 209.057 345 201.7L344.9 201.8Z" fill="#FF9811"/>
<path d="M255.9 239.699L219.8 256.399V289.799L256 312.099L292.2 289.799V256.399L255.9 239.699Z" fill="#0052B4"/>
<path d="M219.8 223H292.1V256.4H219.8V223Z" fill="#D80027"/>
</g>
</svg>
